X:1
T:Title
%%score 1 { ( 2 3 4 ) | ( 5 6 ) }
L:1/8
Q:1/4=100
M:4/4
K:C
V:1 treble nm="Akkordion"
V:2 treble nm="Grand Piano"
V:3 treble 
V:4 treble 
V:5 bass 
V:6 bass 
V:1
 G2 G2- GGEF | G2 G2- GGEF |[M:2/4] G^F GA | Bd cA |[M:4/4] B2 B4 z2 | A2 A2- A^GAB | %6
w: Chas.~H.~Gabriel * * * * *||||||
 A2 A2- A^GAB | A^GAB ADEF | G2 G4 z2 | G2 G2- GGEF | G2 G2- GGEF | G^FGA BABc | d2 d4 e2 | %13
w: |||||||
 d2 ^F2 d3 e | d2 G2 d3 d | d2 c2 B2 A2 | G6 z2 | z8 | z8 | z8 | z8 | z8 | z8 | z8 | z8 | z8 | z8 | %27
w: ||||||||||||||
 z8 | z8 | z8 | z8 | z8 |[M:3/4] z6 |] %33
w: ||||||
V:2
 z2 [Geg]4 z2 | z2 [Geg]4 z2 |[M:2/4] [Gg][^F^f] [Gg][Aa] | [Bb][dd'] [cc'][Aa] | %4
[M:4/4] z2 [Bfb]4 z2 | [Bfa]2 z2 z ^g[Aa][Bb] | [Bfa]2 z2 z ^g[Aa][Bb] | %7
 [Aa][^G^g][Aa][Bb] [Aa][Dd][Ee][Ff] | [Geg]2 [Geg]4 z2 | z2 [Geg]4 z2 | z2 [Geg]4 z2 | %11
 [Gg][^F^f][Gg][Aa] [Bb][Aa][Bb][cc'] | z2 [dd']4 z2 | [dd']2 ^f2 z2 z [ee'] | [dd']2 g2 z2 z d' | %15
 [^fd']2 [dfc']2 [dfb]2 [cdfa]2 | [Bg]6 z2 | [Ge]2 [Ge]2- [Ge]B[Ge]d | [Ec]2 G2- Ge[Fd]c | %19
 [Fc]2 [FB]4 z2 | [EA]2 [EG]4 .G2 | [Ge]2 [Ge]2- [Ge]B[Ge]d | [Ec]2 [EG]4 GA | B2 B2 BAG^F | %24
 EFGA Bcd_e | z2 [Ge]4 z2 | [Ec]2 [EG]2 z e[Fd][Ec] | [DFc]2 [DF]2 z d[Ec][FB] | %28
 [DEc]2 G2- G-[EG]Gc | z2 [Ge]4 z2 | [Ec]2 [EG]2 z d[Ec][EA] | [FB]2 [Af]2 [Ge]2 [Fd]2 | %32
[M:3/4] [Ec]6 |] %33
V:3
 [Geg]2 z2 z g[Ee][Ff] | [Geg]2 z2 z g[Ee][Ff] |[M:2/4] x4 | x4 |[M:4/4] [Bfb]2 z2 G,2 G,2 | %5
 z2 [Bfa]4 z2 | z2 [Bfa]4 z2 | x8 | x8 | [Geg]2 z2 z g[Ee][Ff] | [Geg]2 z2 z g[Ee][Ff] | x8 | %12
 [dd']2 z2 G,2 e'2 | z4 [dd']4 | z4 [dd']4 | x8 | x8 | x8 | z2 E4 z2 | x8 | x8 | x8 | x8 | x8 | %24
 x8 | [Ge]2 z2 z B[Ge][Fd] | z4 C2 z2 | z4 D2 z2 | z2 E4 z2 | [Ge]2 z2 z B[Ge][Fd] | z4 C2 z2 | %31
 x8 |[M:3/4] z2 G,2 C2 |] %33
V:4
 z4 G,2 z2 | z4 G,2 z2 |[M:2/4] x4 | x4 |[M:4/4] x8 | z4 G,2 z2 | z4 G,2 z2 | x8 | x8 | z4 G,2 z2 | %10
 z4 G,2 z2 | x8 | x8 | z4 z2 [CD]2 | z4 z2 B,2 | x8 | x8 | x8 | x8 | x8 | x8 | x8 | x8 | x8 | x8 | %25
 z4 C2 z2 | x8 | x8 | z4 C2 z2 | z4 C2 z2 | x8 | x8 |[M:3/4] x6 |] %33
V:5
 [C,G,]2 [G,,G,]2 z G [G,,G,]2 | [C,G,]2 [G,,G,]2 z G [G,,G,]2 |[M:2/4] [C,G,]2 [G,,G,]2 | %3
 [C,G,]2 [G,,G,]2 |[M:4/4] [D,G,]2 [G,,G,]2 D,2 G,,2 | [D,G,]2 [G,,G,]2 z ^G [G,,G,]2 | %6
 [D,G,]2 [G,,G,]2 z ^G [G,,G,]2 | [D,G,]2 [G,,G,]2 [D,G,]F,E,D, | C,CB,A, G,F,E,D, | %9
 [C,G,]2 [G,,G,]2 z G [G,,G,]2 | [C,G,]2 [G,,G,]2 z G [G,,G,]2 | %11
 [C,G,]2 [G,,G,]2 [C,G,]2 [G,,G,]2 | [B,,B,]2 [A,,A,]2 G,,2[K:treble] e2 | %13
 [D,,D,]2 [A,CD]2 [^F,,^F,]2 A,2 | [G,,G,]2 [D,G,B,]2 [G,,G,]2 z[K:treble] d | %15
 [D,,D,]2 [^F,A,D]2 [D,,D,]2 [F,A,CD]2 | [G,B,D]^F,G,A, G,=F,E,D, | C,2 G,,2 z G z F | %18
 C,2 G,,2 z G z E | D,2 G,,2 D,2 G,,2 | C,2 G,,2 z E z[K:treble] c | C,2 G,,2 z G z F | %22
 C,2 G,,2 z ^F G,,2 | B,,2 B,,2 B,,A,,G,,^F,, | .E,,2 z2 z4 | [C,G,C]2 [G,,G,]2 z G [G,,G,]2 | %26
 [C,G,C]2 [G,,G,]2 z G [G,,G,]2 | z4 [D,G,]2 z2 | [C,G,]2 [G,,G,]2 [C,G,]2 [G,,G,]2 | %29
 [C,G,C]2 [G,,G,]2 z G [G,,G,]2 | [C,G,C]2 [G,,G,]2 z E [G,,G,]2 | %31
 [D,G,D]2 [G,,G,]2 [B,,G,B,]2 [G,,G,]2 |[M:3/4] [C,G,C]2 G,,2 [C,G,]2 |] %33
V:6
 z4 C,2 z2 | z4 C,2 z2 |[M:2/4] x4 | x4 |[M:4/4] x8 | z4 D,2 z2 | z4 D,2 z2 | x8 | x8 | z4 C,2 z2 | %10
 z4 C,2 z2 | x8 | x6[K:treble] x2 | x8 | z4 z2 [D,G,]2[K:treble] | x8 | x8 | z4 C,2 G,,2 | %18
 z4 C,2 G,,2 | x8 | z4 C,2 G,,2[K:treble] | z4 C,2 G,,2 | z4 C,2 z2 | x8 | x8 | z4 [C,G,]2 z2 | %26
 z4 [D,G,]2 z2 | [C,G,]2 [G,,G,]2 z F [G,,G,]2 | x8 | z4 [C,G,]2 z2 | z4 [C,G,]2 z2 | x8 | %32
[M:3/4] x6 |] %33

